public/icons/login.svg

<?xml version="1.0" encoding="UTF-8" standalone="no" ?>
<!DOCTYPE svg PUBLIC "-//W3C//DTD SVG 1.1//EN" "http://www.w3.org/Graphics/SVG/1.1/DTD/svg11.dtd">
<svg xmlns="http://www.w3.org/2000/svg" xmlns:xlink="http://www.w3.org/1999/xlink" version="1.1" width="1080" height="1080" viewBox="0 0 1080 1080" xml:space="preserve">
<desc>Created with Fabric.js 5.2.4</desc>
<defs>
</defs>
<rect x="0" y="0" width="100%" height="100%" fill="transparent"></rect>
<g transform="matrix(1 0 0 1 540 540)" id="8db7548a-c598-426b-8dc5-07de4ce82a61"  >
<rect style="stroke: none; stroke-width: 1; stroke-dasharray: none; stroke-linecap: butt; stroke-dashoffset: 0; stroke-linejoin: miter; stroke-miterlimit: 4; fill: rgb(255,255,255); fill-rule: nonzero; opacity: 1; visibility: hidden;" vector-effect="non-scaling-stroke"  x="-540" y="-540" rx="0" ry="0" width="1080" height="1080" />
</g>
<g transform="matrix(1 0 0 1 540 540)" id="7437e733-79dc-47bc-9158-75eea5a2c0d3"  >
</g>
<g transform="matrix(1 0 0 1 540 540)"  >
<g style="" vector-effect="non-scaling-stroke"   >
		<g transform="matrix(1.59 0 0 1.59 -26.42 0.27)"  >
<path style="stroke: none; stroke-width: 1; stroke-dasharray: none; stroke-linecap: butt; stroke-dashoffset: 0; stroke-linejoin: miter; stroke-miterlimit: 4; fill: rgb(244,190,111); fill-rule: nonzero; opacity: 1;" vector-effect="non-scaling-stroke"  transform=" translate(-234.26, -251.07)" d="M 328.131 251.075 L 328.131 302.275 L 328.131 430.275 C 328.131 449.048 312.77099999999996 464.40799999999996 293.998 464.40799999999996 L 140.398 464.40799999999996 L 140.398 37.741 L 293.998 37.741 C 312.771 37.741 328.131 53.101 328.131 71.874 L 328.131 251.075 z" stroke-linecap="round" />
</g>
		<g transform="matrix(1.59 0 0 1.59 -283.88 0.27)"  >
<path style="stroke: none; stroke-width: 1; stroke-dasharray: none; stroke-linecap: butt; stroke-dashoffset: 0; stroke-linejoin: miter; stroke-miterlimit: 4; fill: rgb(85,183,168); fill-rule: nonzero; opacity: 1;" vector-effect="non-scaling-stroke"  transform=" translate(-72.13, -251.07)" d="M 140.397 37.741 L 140.397 464.40799999999996 L 140.397 472.941 C 140.397 491.714 126.74399999999999 502.808 110.52999999999999 496.83399999999995 L 29.462999999999994 464.4069999999999 C 9.835999999999995 457.5799999999999 3.8629999999999924 449.0469999999999 3.8629999999999924 430.27399999999994 L 3.8629999999999924 71.87399999999997 C 3.8629999999999924 53.10099999999997 10.689999999999992 44.566999999999965 29.462999999999994 37.740999999999964 L 110.52999999999999 5.3139999999999645 C 126.743 -0.6590000000000353 140.397 10.433999999999966 140.397 29.206999999999965 L 140.397 37.741 z" stroke-linecap="round" />
</g>
		<g transform="matrix(1.59 0 0 1.59 0 0)"  >
<path style="stroke: none; stroke-width: 1; stroke-dasharray: none; stroke-linecap: butt; stroke-dashoffset: 0; stroke-linejoin: miter; stroke-miterlimit: 4; fill: rgb(81,86,95); fill-rule: nonzero; opacity: 1;" vector-effect="non-scaling-stroke"  transform=" translate(-251.9, -251.9)" d="M 120.064 503.808 C 116.651 503.808 113.237 502.955 109.824 502.101 L 28.757000000000005 469.674 C 8.277000000000005 461.99399999999997 0.5970000000000049 451.75399999999996 0.5970000000000049 431.274 L 0.5970000000000049 72.87400000000002 C 0.5970000000000049 52.39400000000002 8.277000000000005 42.154000000000025 28.757000000000005 34.474000000000025 L 109.824 2.0470000000000255 C 118.357 -1.3659999999999743 126.89099999999999 -0.5129999999999746 133.71699999999998 4.607000000000026 C 141.397 9.727000000000025 145.664 19.114000000000026 145.664 30.20700000000003 L 145.664 473.94000000000005 C 145.664 485.0330000000001 141.397 494.4200000000001 133.71699999999998 499.5400000000001 C 130.304 502.101 125.184 503.808 120.064 503.808 z M 120.064 8.875 C 117.50399999999999 8.875 114.94399999999999 9.728 112.38399999999999 10.582 L 31.317 43.008 C 13.396999999999998 49.835 8.277000000000001 56.661 8.277000000000001 72.875 L 8.277000000000001 431.275 C 8.277000000000001 448.342 13.397000000000002 455.168 31.317 461.142 L 112.38399999999999 493.569 C 118.35699999999999 496.129 124.33099999999999 495.276 128.59699999999998 492.716 C 133.71699999999998 489.303 136.277 482.476 136.277 473.943 L 136.277 30.208 C 136.277 21.674999999999997 133.71699999999998 14.847999999999999 128.59699999999998 11.434999999999999 C 126.89 9.728 123.477 8.875 120.064 8.875 z M 294.997 469.675 L 175.531 469.675 C 172.971 469.675 171.264 467.968 171.264 465.408 C 171.264 462.848 172.971 461.141 175.531 461.141 L 294.998 461.141 C 311.211 461.141 324.865 447.488 324.865 431.274 L 324.865 303.274 C 324.865 300.714 326.572 299.007 329.132 299.007 C 331.692 299.007 333.399 300.714 333.399 303.274 L 333.399 431.274 C 333.397 452.608 316.331 469.675 294.997 469.675 z M 277.931 341.675 C 277.078 341.675 275.371 341.675 274.518 340.822 L 189.18499999999997 255.489 C 188.33199999999997 254.636 187.47799999999998 253.782 187.47799999999998 252.076 L 187.47799999999998 252.076 C 187.47799999999998 251.22299999999998 187.47799999999998 249.516 188.331 248.66299999999998 L 273.664 163.32999999999998 C 275.371 161.623 277.931 161.623 279.637 163.32999999999998 C 281.343 165.03699999999998 281.344 167.59699999999998 279.637 169.303 L 201.98399999999998 246.95600000000002 L 498.94399999999996 246.95600000000002 C 501.50399999999996 246.95600000000002 503.21099999999996 248.663 503.21099999999996 251.223 C 503.21099999999996 253.78300000000002 501.50399999999996 255.49 498.94399999999996 255.49 L 201.98399999999998 255.49 L 279.637 333.14300000000003 C 281.344 334.85 281.344 337.41 279.637 339.11600000000004 C 280.491 340.821 278.784 341.675 277.931 341.675 z M 107.264 281.941 C 104.704 281.941 102.997 280.234 102.997 277.674 L 102.997 226.474 C 102.997 223.914 104.704 222.207 107.264 222.207 C 109.824 222.207 111.53099999999999 223.914 111.53099999999999 226.474 L 111.53099999999999 277.674 C 111.531 280.234 109.824 281.941 107.264 281.941 z M 329.131 205.141 C 326.57099999999997 205.141 324.864 203.434 324.864 200.874 L 324.864 72.874 C 324.864 56.660999999999994 311.21099999999996 43.00699999999999 294.99699999999996 43.00699999999999 L 174.67699999999996 43.00699999999999 C 172.11699999999996 43.00699999999999 170.40999999999997 41.29999999999999 170.40999999999997 38.73999999999999 C 170.40999999999997 36.179999999999986 172.11699999999996 34.472999999999985 174.67699999999996 34.472999999999985 L 294.99699999999996 34.472999999999985 C 316.3299999999999 34.472999999999985 333.39699999999993 51.539999999999985 333.39699999999993 72.87299999999999 L 333.39699999999993 200.873 C 333.397 203.434 331.691 205.141 329.131 205.141 z" stroke-linecap="round" />
</g>
</g>
</g>
</svg>

<!DOCTYPE svg PUBLIC "-//W3C//DTD SVG 1.1//EN" "http://www.w3.org/Graphics/SVG/1.1/DTD/svg11.dtd">
<!-- Uploaded to: SVG Repo, www.svgrepo.com, Transformed by: SVG Repo Mixer Tools -->
<svg height="800px" width="800px" version="1.1" id="Layer_1" xmlns="http://www.w3.org/2000/svg" xmlns:xlink="http://www.w3.org/1999/xlink" viewBox="0 0 503.808 503.808" xml:space="preserve" fill="#000000">
<g id="SVGRepo_bgCarrier" stroke-width="0"/>
<g id="SVGRepo_tracerCarrier" stroke-linecap="round" stroke-linejoin="round"/>
<g id="SVGRepo_iconCarrier"> <g transform="translate(1 1)"> <path style="fill:#F4BE6F;" d="M328.131,251.075v51.2v128c0,18.773-15.36,34.133-34.133,34.133h-153.6V37.741h153.6 c18.773,0,34.133,15.36,34.133,34.133V251.075z"/> <path style="fill:#55B7A8;" d="M140.397,37.741v426.667v8.533c0,18.773-13.653,29.867-29.867,23.893l-81.067-32.427 c-19.627-6.827-25.6-15.36-25.6-34.133v-358.4c0-18.773,6.827-27.307,25.6-34.133l81.067-32.427 c16.213-5.973,29.867,5.12,29.867,23.893V37.741z"/> </g> <path style="fill:#51565F;" d="M120.064,503.808c-3.413,0-6.827-0.853-10.24-1.707l-81.067-32.427 c-20.48-7.68-28.16-17.92-28.16-38.4v-358.4c0-20.48,7.68-30.72,28.16-38.4l81.067-32.427c8.533-3.413,17.067-2.56,23.893,2.56 c7.68,5.12,11.947,14.507,11.947,25.6v443.733c0,11.093-4.267,20.48-11.947,25.6C130.304,502.101,125.184,503.808,120.064,503.808z M120.064,8.875c-2.56,0-5.12,0.853-7.68,1.707L31.317,43.008c-17.92,6.827-23.04,13.653-23.04,29.867v358.4 c0,17.067,5.12,23.893,23.04,29.867l81.067,32.427c5.973,2.56,11.947,1.707,16.213-0.853c5.12-3.413,7.68-10.24,7.68-18.773V30.208 c0-8.533-2.56-15.36-7.68-18.773C126.89,9.728,123.477,8.875,120.064,8.875z M294.997,469.675H175.531 c-2.56,0-4.267-1.707-4.267-4.267c0-2.56,1.707-4.267,4.267-4.267h119.467c16.213,0,29.867-13.653,29.867-29.867v-128 c0-2.56,1.707-4.267,4.267-4.267c2.56,0,4.267,1.707,4.267,4.267v128C333.397,452.608,316.331,469.675,294.997,469.675z M277.931,341.675c-0.853,0-2.56,0-3.413-0.853l-85.333-85.333c-0.853-0.853-1.707-1.707-1.707-3.413l0,0 c0-0.853,0-2.56,0.853-3.413l85.333-85.333c1.707-1.707,4.267-1.707,5.973,0s1.707,4.267,0,5.973l-77.653,77.653h296.96 c2.56,0,4.267,1.707,4.267,4.267s-1.707,4.267-4.267,4.267h-296.96l77.653,77.653c1.707,1.707,1.707,4.267,0,5.973 C280.491,340.821,278.784,341.675,277.931,341.675z M107.264,281.941c-2.56,0-4.267-1.707-4.267-4.267v-51.2 c0-2.56,1.707-4.267,4.267-4.267c2.56,0,4.267,1.707,4.267,4.267v51.2C111.531,280.234,109.824,281.941,107.264,281.941z M329.131,205.141c-2.56,0-4.267-1.707-4.267-4.267v-128c0-16.213-13.653-29.867-29.867-29.867h-120.32 c-2.56,0-4.267-1.707-4.267-4.267c0-2.56,1.707-4.267,4.267-4.267h120.32c21.333,0,38.4,17.067,38.4,38.4v128 C333.397,203.434,331.691,205.141,329.131,205.141z"/> </g>
</svg>
